dist/assets/img/footer/inst.svg

<svg width="50" height="50" viewBox="0 0 50 50" fill="none" xmlns="http://www.w3.org/2000/svg">
<g clip-path="url(#clip0)">
<path d="M3.12501 3.40196C-0.804158 7.48321 8.21054e-06 11.8186 8.21054e-06 24.9895C8.21054e-06 35.927 -1.90833 46.8915 8.07917 49.4728C11.1979 50.2749 38.8313 50.2749 41.9458 49.4686C46.1042 48.3957 49.4875 45.0228 49.95 39.1415C50.0146 38.3207 50.0146 11.6728 49.9479 10.8353C49.4563 4.57071 45.6 0.960289 40.5188 0.22904C39.3542 0.0602895 39.1208 0.0102895 33.1458 -0.000127144C11.9521 0.0102895 7.30626 -0.933461 3.12501 3.40196Z" fill="url(#paint0_linear)"/>
<path d="M24.9959 6.53955C17.4313 6.53955 10.2479 5.86663 7.50419 12.9083C6.37085 15.8166 6.53544 19.5937 6.53544 25.002C6.53544 29.7479 6.38335 34.2083 7.50419 37.0937C10.2417 44.1395 17.4834 43.4645 24.9917 43.4645C32.2354 43.4645 39.7042 44.2187 42.4813 37.0937C43.6167 34.1562 43.45 30.4354 43.45 25.002C43.45 17.7895 43.8479 13.1333 40.35 9.63746C36.8084 6.0958 32.0188 6.53955 24.9875 6.53955H24.9959ZM23.3417 9.86663C39.1209 9.84163 41.1292 8.08746 40.0209 32.4562C39.6271 41.075 33.0646 40.1291 24.9979 40.1291C10.2896 40.1291 9.86669 39.7083 9.86669 24.9937C9.86669 10.1083 11.0334 9.87496 23.3417 9.86246V9.86663ZM34.85 12.9312C33.6271 12.9312 32.6354 13.9229 32.6354 15.1458C32.6354 16.3687 33.6271 17.3604 34.85 17.3604C36.0729 17.3604 37.0646 16.3687 37.0646 15.1458C37.0646 13.9229 36.0729 12.9312 34.85 12.9312ZM24.9959 15.5208C19.7604 15.5208 15.5167 19.7666 15.5167 25.002C15.5167 30.2375 19.7604 34.4812 24.9959 34.4812C30.2313 34.4812 34.4729 30.2375 34.4729 25.002C34.4729 19.7666 30.2313 15.5208 24.9959 15.5208ZM24.9959 18.8479C33.1313 18.8479 33.1417 31.1562 24.9959 31.1562C16.8625 31.1562 16.85 18.8479 24.9959 18.8479Z" fill="white"/>
</g>
<defs>
<linearGradient id="paint0_linear" x1="3.22088" y1="46.8063" x2="49.6906" y2="6.58732" gradientUnits="userSpaceOnUse">
<stop stop-color="#FFDD55"/>
<stop offset="0.5" stop-color="#FF543E"/>
<stop offset="1" stop-color="#C837AB"/>
</linearGradient>
<clipPath id="clip0">
<rect width="50" height="50" fill="white"/>
</clipPath>
</defs>
</svg>

<svg width="50" height="50" fill="none" xmlns="http://www.w3.org/2000/svg"><g clip-path="url(#clip0)"><path d="M3.125 3.402C-.805 7.483 0 11.819 0 24.989c0 10.938-1.908 21.902 8.08 24.484 3.118.802 30.751.802 33.866-.004 4.158-1.073 7.541-4.446 8.004-10.328.065-.82.065-27.468-.002-28.306C49.456 4.571 45.6.96 40.518.23c-1.163-.17-1.396-.22-7.371-.231C11.952.01 7.306-.932 3.125 3.403z" fill="url(#paint0_linear)"/><path d="M24.996 6.54c-7.565 0-14.748-.673-17.492 6.368-1.133 2.909-.969 6.686-.969 12.094 0 4.746-.152 9.206.97 12.092 2.737 7.045 9.978 6.37 17.487 6.37 7.243 0 14.712.755 17.49-6.37 1.135-2.938.968-6.659.968-12.092 0-7.212.398-11.869-3.1-15.365-3.542-3.541-8.331-3.097-15.363-3.097h.009zm-1.654 3.327c15.779-.025 17.787-1.78 16.679 22.59-.394 8.618-6.956 7.672-15.023 7.672-14.708 0-15.131-.42-15.131-15.135 0-14.886 1.166-15.119 13.475-15.132v.005zM34.85 12.93a2.215 2.215 0 100 4.43 2.215 2.215 0 000-4.43zm-9.854 2.59c-5.236 0-9.48 4.246-9.48 9.481a9.479 9.479 0 009.48 9.48c5.235 0 9.477-4.244 9.477-9.48 0-5.235-4.242-9.481-9.477-9.481zm0 3.327c8.135 0 8.146 12.308 0 12.308-8.133 0-8.146-12.308 0-12.308z" fill="#fff"/></g><defs><linearGradient id="paint0_linear" x1="3.221" y1="46.806" x2="49.691" y2="6.587" gradientUnits="userSpaceOnUse"><stop stop-color="#FD5"/><stop offset=".5" stop-color="#FF543E"/><stop offset="1" stop-color="#C837AB"/></linearGradient><clipPath id="clip0"><path fill="#fff" d="M0 0h50v50H0z"/></clipPath></defs></svg>
